SVG_Azure_All/Blockchain Connection.svg

<?xml version="1.0" encoding="UTF-8" standalone="no"?>
<!-- Generated by Microsoft Visio, SVG Export Blockchain Connection.svg Page-1 -->

<svg
   xmlns:dc="http://purl.org/dc/elements/1.1/"
   xmlns:cc="http://creativecommons.org/ns#"
   xmlns:rdf="http://www.w3.org/1999/02/22-rdf-syntax-ns#"
   xmlns:svg="http://www.w3.org/2000/svg"
   xmlns="http://www.w3.org/2000/svg"
   xmlns:sodipodi="http://sodipodi.sourceforge.net/DTD/sodipodi-0.dtd"
   xmlns:inkscape="http://www.inkscape.org/namespaces/inkscape"
   width="0.7835896in"
   height="0.70874345in"
   viewBox="0 0 56.418284 51.029477"
   xml:space="preserve"
   class="st5"
   version="1.1"
   id="svg39"
   sodipodi:docname="Blockchain Connection.svg"
   style="font-size:12px;overflow:visible;color-interpolation-filters:sRGB;fill:none;fill-rule:evenodd;stroke-linecap:square;stroke-miterlimit:3"
   inkscape:version="0.92.5 (2060ec1f9f, 2020-04-08)"><metadata
   id="metadata45"><rdf:RDF><cc:Work
       rdf:about=""><dc:format>image/svg+xml</dc:format><dc:type
         rdf:resource="http://purl.org/dc/dcmitype/StillImage" /></cc:Work></rdf:RDF></metadata><defs
   id="defs43" /><sodipodi:namedview
   pagecolor="#ffffff"
   bordercolor="#666666"
   borderopacity="1"
   objecttolerance="10"
   gridtolerance="10"
   guidetolerance="10"
   inkscape:pageopacity="0"
   inkscape:pageshadow="2"
   inkscape:window-width="640"
   inkscape:window-height="480"
   id="namedview41"
   showgrid="false"
   inkscape:zoom="1.5163571"
   inkscape:cx="37.428277"
   inkscape:cy="32.46547"
   inkscape:window-x="0"
   inkscape:window-y="0"
   inkscape:window-maximized="0"
   inkscape:current-layer="svg39" />
	<style
   type="text/css"
   id="style2">
	<![CDATA[
		.st1 {fill:#773adc;stroke:none;stroke-linecap:butt;stroke-width:31.6881}
		.st2 {fill:#b796f9;stroke:none;stroke-linecap:butt;stroke-width:31.6881}
		.st3 {fill:#a67af4;stroke:none;stroke-linecap:butt;stroke-width:31.6881}
		.st4 {fill:#32bedd;stroke:none;stroke-linecap:butt;stroke-width:31.6881}
		.st5 {fill:none;fill-rule:evenodd;font-size:12px;overflow:visible;stroke-linecap:square;stroke-miterlimit:3}
	]]>
	</style>

	<g
   id="g37"
   transform="translate(-31.963439,-31.6831)">
		<title
   id="title4">Page-1</title>
		<g
   id="group7296-1"
   transform="translate(31.6881,-34.0157)">
			<title
   id="title6">Blockchain Connection</title>
			<g
   id="group7297-2">
				<title
   id="title8">layer1</title>
				<g
   id="shape7298-3"
   transform="translate(28.4156,-9.92362)">
					<title
   id="title10">polygon4</title>
					<path
   d="m 17.73,85.93 v 20.52 L 0,116.73 V 96.21 Z"
   class="st1"
   id="path12"
   inkscape:connector-curvature="0"
   style="fill:#773adc;stroke:none;stroke-width:31.68810081;stroke-linecap:butt" />
				</g>
				<g
   id="shape7299-5"
   transform="translate(10.6876,-30.4112)">
					<title
   id="title15">polygon6</title>
					<path
   d="M 35.46,106.42 17.73,116.73 0,106.42 17.73,96.11 Z"
   class="st2"
   id="path17"
   inkscape:connector-curvature="0"
   style="fill:#b796f9;stroke:none;stroke-width:31.68810081;stroke-linecap:butt" />
				</g>
				<g
   id="shape7300-7"
   transform="translate(10.6876,-9.92362)">
					<title
   id="title20">polygon8</title>
					<path
   d="m 17.73,96.24 v 20.49 L 0,106.45 V 85.93 Z"
   class="st3"
   id="path22"
   inkscape:connector-curvature="0"
   style="fill:#a67af4;stroke:none;stroke-width:31.68810081;stroke-linecap:butt" />
				</g>
				<g
   id="shape7301-9"
   transform="translate(14.8367,-19.1681)">
					<title
   id="title25">path10</title>
					<path
   d="M 4.21,105.77 C 1.89,104.45 0,105.52 0,108.17 a 9.20977,9.15068 -180 0 0 4.21,7.21 c 2.3,1.35 4.21,0.29 4.21,-2.37 a 9.4298,9.3693 -180 0 0 -4.21,-7.24 z"
   class="st1"
   id="path27"
   inkscape:connector-curvature="0"
   style="fill:#773adc;stroke:none;stroke-width:31.68810081;stroke-linecap:butt" />
				</g>
				<g
   id="shape7302-11">
					<title
   id="title30">path12</title>
					<path
   d="m 56.58,107.93 -8.14,-8.12 a 0.440058,0.437234 -180 0 0 -0.660539,0 L 47.78,106.05 H 10.56 a 6.28654,6.2462 0 1 1 0,-12.49 h 7.51 a 2.13742,2.12371 -180 0 0 2.11,-2.12 2.10599,2.09248 -180 0 0 -2.11,-2.09 h -7.51 a 10.5614,10.4936 -180 0 0 0,20.98 h 37.09 v 6.25 a 0.440058,0.437234 -180 0 0 0.660528,0 L 56.58,108.49 a 0.408625,0.406003 -180 0 0 0,-0.56187 z"
   class="st4"
   id="path32"
   inkscape:connector-curvature="0"
   style="fill:#32bedd;stroke:none;stroke-width:31.68810081;stroke-linecap:butt" />
				</g>
			</g>
		</g>
	</g>
</svg>

<?xml version="1.0" encoding="UTF-8" standalone="no"?>
<!DOCTYPE svg PUBLIC "-//W3C//DTD SVG 1.1//EN" "http://www.w3.org/Graphics/SVG/1.1/DTD/svg11.dtd">
<!-- Generated by Microsoft Visio, SVG Export Blockchain Connection.svg Page-1 -->
<svg xmlns="http://www.w3.org/2000/svg" xmlns:xlink="http://www.w3.org/1999/xlink" xmlns:ev="http://www.w3.org/2001/xml-events"
		width="1.66763in" height="1.62121in" viewBox="0 0 120.069 116.727" xml:space="preserve" color-interpolation-filters="sRGB"
		class="st5">
	<style type="text/css">
	<![CDATA[
		.st1 {fill:#773adc;stroke:none;stroke-linecap:butt;stroke-width:31.6881}
		.st2 {fill:#b796f9;stroke:none;stroke-linecap:butt;stroke-width:31.6881}
		.st3 {fill:#a67af4;stroke:none;stroke-linecap:butt;stroke-width:31.6881}
		.st4 {fill:#32bedd;stroke:none;stroke-linecap:butt;stroke-width:31.6881}
		.st5 {fill:none;fill-rule:evenodd;font-size:12px;overflow:visible;stroke-linecap:square;stroke-miterlimit:3}
	]]>
	</style>

	<g>
		<title>Page-1</title>
		<g id="group7128-1" transform="translate(31.6881,-34.0157)">
			<title>Blockchain Connection</title>
			<g id="group7129-2">
				<title>layer1</title>
				<g id="shape7130-3" transform="translate(28.4156,-9.92362)">
					<title>polygon4</title>
					<path d="M17.73 85.93 L17.73 106.45 L0 116.73 L0 96.21 L17.73 85.93 Z" class="st1"/>
				</g>
				<g id="shape7131-5" transform="translate(10.6876,-30.4112)">
					<title>polygon6</title>
					<path d="M35.46 106.42 L17.73 116.73 L0 106.42 L17.73 96.11 L35.46 106.42 Z" class="st2"/>
				</g>
				<g id="shape7132-7" transform="translate(10.6876,-9.92362)">
					<title>polygon8</title>
					<path d="M17.73 96.24 L17.73 116.73 L0 106.45 L0 85.93 L17.73 96.24 Z" class="st3"/>
				</g>
				<g id="shape7133-9" transform="translate(14.8367,-19.1681)">
					<title>path10</title>
					<path d="M4.21 105.77 C1.89 104.45 0 105.52 0 108.17 A9.20977 9.15068 -180 0 0 4.21 115.38 C6.51 116.73 8.42
								 115.67 8.42 113.01 A9.4298 9.3693 -180 0 0 4.21 105.77 Z" class="st1"/>
				</g>
				<g id="shape7134-11">
					<title>path12</title>
					<path d="M56.58 107.93 L48.44 99.81 a0.440058 0.437234 -180 0 0 -0.660539 2.27374E-13 L47.78 106.05 L10.56 106.05
								 A6.28654 6.2462 0 1 1 10.56 93.56 L18.07 93.56 A2.13742 2.12371 -180 0 0 20.18 91.44 A2.10599 2.09248
								 -180 0 0 18.07 89.35 L10.56 89.35 A10.5614 10.4936 -180 0 0 10.56 110.33 L47.65 110.33 L47.65 116.58
								 a0.440058 0.437234 -180 0 0 0.660528 -9.9476E-14 L56.58 108.49 a0.408625 0.406003 -180 0 0 1.13687E-13
								 -0.561867 L56.58 107.93 Z" class="st4"/>
				</g>
			</g>
		</g>
	</g>
</svg>
